assets/images/AWS/Database/Elasticache/Database_AmazonElasticCache_Node.svg

<?xml version="1.0" encoding="UTF-8" standalone="no"?>
<!-- Generator: Adobe Illustrator 19.1.0, SVG Export Plug-In . SVG Version: 6.00 Build 0)  -->

<svg
   xmlns:dc="http://purl.org/dc/elements/1.1/"
   xmlns:cc="http://creativecommons.org/ns#"
   xmlns:rdf="http://www.w3.org/1999/02/22-rdf-syntax-ns#"
   xmlns:svg="http://www.w3.org/2000/svg"
   xmlns="http://www.w3.org/2000/svg"
   xmlns:xlink="http://www.w3.org/1999/xlink"
   xmlns:sodipodi="http://sodipodi.sourceforge.net/DTD/sodipodi-0.dtd"
   xmlns:inkscape="http://www.inkscape.org/namespaces/inkscape"
   version="1.1"
   id="Layer_1"
   x="0px"
   y="0px"
   viewBox="0 0 100 100"
   style="enable-background:new 0 0 100 100;"
   xml:space="preserve"
   inkscape:version="0.91 r13725"
   sodipodi:docname="Database_AmazonElasticCache_Node.svg"><metadata
     id="metadata63"><rdf:RDF><cc:Work
         rdf:about=""><dc:format>image/svg+xml</dc:format><dc:type
           rdf:resource="http://purl.org/dc/dcmitype/StillImage" /></cc:Work></rdf:RDF></metadata><defs
     id="defs61" /><sodipodi:namedview
     pagecolor="#ffffff"
     bordercolor="#666666"
     borderopacity="1"
     objecttolerance="10"
     gridtolerance="10"
     guidetolerance="10"
     inkscape:pageopacity="0"
     inkscape:pageshadow="2"
     inkscape:window-width="1280"
     inkscape:window-height="985"
     id="namedview59"
     showgrid="false"
     inkscape:zoom="7.4579687"
     inkscape:cx="50.26817"
     inkscape:cy="50"
     inkscape:window-x="0"
     inkscape:window-y="0"
     inkscape:window-maximized="1"
     inkscape:current-layer="Layer_1" /><style
     type="text/css"
     id="style3">
	.st0{enable-background:new    ;}
	.st1{fill:#1A476F;}
	.st2{clip-path:url(#SVGID_2_);enable-background:new    ;}
	.st3{fill:#2D72B8;}
	.st4{fill:#FFFFFF;}
	.st5{display:none;}
</style><g
     id="Layer_1_1_"
     transform="matrix(1.8181818,0,0,1.8181818,-40.998044,-39.999999)"><g
       id="g6"><g
         id="g8"><g
           class="st0"
           id="g10"
           style="enable-background:new"><g
             class="st0"
             id="g12"
             style="enable-background:new"><g
               id="g14"><path
                 id="SVGID_43_"
                 class="st1"
                 d="m 76.4,66.9 0,2.6 c 0,4.1 -3.4,7.5 -7.5,7.5 l 0,-2.6 c 4.1,0 7.5,-3.4 7.5,-7.5 z"
                 inkscape:connector-curvature="0"
                 style="fill:#1a476f" /></g><g
               id="g17"><defs
                 id="defs19"><path
                   id="SVGID_1_"
                   d="m 76.4,66.9 0,2.6 c 0,4.1 -3.4,7.5 -7.5,7.5 l 0,-2.6 c 4.1,0 7.5,-3.4 7.5,-7.5 z"
                   inkscape:connector-curvature="0" /></defs><clipPath
                 id="SVGID_2_"><use
                   xlink:href="#SVGID_1_"
                   style="overflow:visible"
                   id="use23"
                   x="0"
                   y="0"
                   width="100%"
                   height="100%" /></clipPath><g
                 class="st2"
                 id="g25"
                 clip-path="url(#SVGID_2_)"
                 style="enable-background:new"><path
                   class="st1"
                   d="m 76.4,66.9 0,2.6 c 0,0.4 0,0.7 -0.1,1.1 l 0,-2.6 c 0,-0.4 0.1,-0.8 0.1,-1.1"
                   id="path27"
                   inkscape:connector-curvature="0"
                   style="fill:#1a476f" /><path
                   class="st1"
                   d="m 76.3,68 0,2.6 C 76.2,71 76.1,71.4 76,71.8 l 0,-2.6 c 0.1,-0.4 0.2,-0.8 0.3,-1.2"
                   id="path29"
                   inkscape:connector-curvature="0"
                   style="fill:#1a476f" /><path
                   class="st1"
                   d="m 76,69.2 0,2.6 c -0.1,0.5 -0.3,0.9 -0.6,1.3 l 0,-2.6 c 0.3,-0.4 0.5,-0.9 0.6,-1.3"
                   id="path31"
                   inkscape:connector-curvature="0"
                   style="fill:#1a476f" /></g></g></g><g
             id="g33"><polygon
               class="st1"
               points="68.8,77 31.2,77 31.2,74.4 69.9,73.6 "
               id="polygon35"
               style="fill:#1a476f" /></g><g
             class="st0"
             id="g37"
             style="enable-background:new"><g
               id="g39"><path
                 id="SVGID_45_"
                 class="st1"
                 d="m 31.2,74.4 0,2.6 C 27,77 23.7,73.6 23.7,69.5 l 0,-2.6 c -0.1,4.1 3.3,7.5 7.5,7.5 z"
                 inkscape:connector-curvature="0"
                 style="fill:#1a476f" /></g></g><g
             id="g42"><path
               class="st3"
               d="m 68.8,22 c 4.2,0 7.5,3.3 7.5,7.5 l 0,38.4 c 0,4.1 -3.4,7.5 -7.5,7.5 l -37.6,0 C 27,75.4 23.7,72 23.7,67.9 l 0,-38.4 c 0,-4.1 3.4,-7.5 7.5,-7.5 l 37.6,0 z"
               id="path44"
               inkscape:connector-curvature="0"
               style="fill:#2d72b8" /></g></g></g><g
         id="g46"><path
           class="st4"
           d="m 37.8,35.7 0,0.3 c 0,2 -0.8,4 -3.4,4 -2.8,0 -3.7,-1.8 -3.7,-5.8 0,-4 0.9,-5.8 3.7,-5.8 3.2,0 3.4,2.3 3.4,3.5 l 0,0.2 -1.8,0 0,-0.2 c 0,-1 -0.3,-2.2 -1.6,-2.2 -1.3,0 -1.9,0.8 -1.9,4.4 0,3.6 0.6,4.5 1.9,4.5 1.5,0 1.7,-1.6 1.7,-2.7 l 0,-0.2 1.7,0 z"
           id="path48"
           inkscape:connector-curvature="0"
           style="fill:#ffffff" /><path
           class="st4"
           d="m 41.1,28.6 2.3,0 2.9,11.1 -1.9,0 -0.6,-2.7 -3.3,0 -0.7,2.7 -1.8,0 3.1,-11.1 z m 2.4,7 -1.3,-5.5 0,0 -1.3,5.5 2.6,0 z"
           id="path50"
           inkscape:connector-curvature="0"
           style="fill:#ffffff" /><path
           class="st4"
           d="m 54,35.7 0,0.3 c 0,2 -0.8,4 -3.4,4 -2.8,0 -3.7,-1.8 -3.7,-5.8 0,-4 0.9,-5.8 3.7,-5.8 3.2,0 3.4,2.3 3.4,3.5 l 0,0.2 -1.8,0 0,-0.2 c 0,-1 -0.3,-2.2 -1.6,-2.2 -1.3,0 -1.9,0.8 -1.9,4.4 0,3.6 0.6,4.5 1.9,4.5 1.5,0 1.7,-1.6 1.7,-2.7 l 0,-0.2 1.7,0 z"
           id="path52"
           inkscape:connector-curvature="0"
           style="fill:#ffffff" /><path
           class="st4"
           d="m 55.2,28.6 1.8,0 0,4.4 3.3,0 0,-4.4 1.8,0 0,11.1 -1.8,0 0,-5.2 -3.3,0 0,5.2 -1.8,0 0,-11.1 z"
           id="path54"
           inkscape:connector-curvature="0"
           style="fill:#ffffff" /><path
           class="st4"
           d="m 63.9,28.6 6,0 0,1.5 -4.3,0 0,3.1 4,0 0,1.5 -4,0 0,3.5 4.4,0 0,1.5 -6.2,0 0,-11.1 0.1,0 z"
           id="path56"
           inkscape:connector-curvature="0"
           style="fill:#ffffff" /></g></g></g><g
     id="nyt_x5F_exporter_x5F_info"
     class="st5" /></svg>

<?xml version="1.0" encoding="utf-8"?>
<!-- Generator: Adobe Illustrator 19.1.0, SVG Export Plug-In . SVG Version: 6.00 Build 0)  -->
<svg version="1.1" id="Layer_1" xmlns="http://www.w3.org/2000/svg" xmlns:xlink="http://www.w3.org/1999/xlink" x="0px" y="0px"
	 viewBox="0 0 100 100" style="enable-background:new 0 0 100 100;" xml:space="preserve">
<style type="text/css">
	.st0{enable-background:new    ;}
	.st1{fill:#1A476F;}
	.st2{clip-path:url(#SVGID_2_);enable-background:new    ;}
	.st3{fill:#2D72B8;}
	.st4{fill:#FFFFFF;}
	.st5{display:none;}
</style>
<g id="Layer_1_1_">
	<g>
		<g>
			<g class="st0">
				<g class="st0">
					<g>
						<path id="SVGID_43_" class="st1" d="M76.4,66.9v2.6c0,4.1-3.4,7.5-7.5,7.5v-2.6C73,74.4,76.4,71,76.4,66.9z"/>
					</g>
					<g>
						<defs>
							<path id="SVGID_1_" d="M76.4,66.9v2.6c0,4.1-3.4,7.5-7.5,7.5v-2.6C73,74.4,76.4,71,76.4,66.9z"/>
						</defs>
						<clipPath id="SVGID_2_">
							<use xlink:href="#SVGID_1_"  style="overflow:visible;"/>
						</clipPath>
						<g class="st2">
							<path class="st1" d="M76.4,66.9v2.6c0,0.4,0,0.7-0.1,1.1V68C76.3,67.6,76.4,67.2,76.4,66.9"/>
							<path class="st1" d="M76.3,68v2.6c-0.1,0.4-0.2,0.8-0.3,1.2v-2.6C76.1,68.8,76.2,68.4,76.3,68"/>
							<path class="st1" d="M76,69.2v2.6c-0.1,0.5-0.3,0.9-0.6,1.3v-2.6C75.7,70.1,75.9,69.6,76,69.2"/>
						</g>
					</g>
				</g>
				<g>
					<polygon class="st1" points="69.9,73.6 68.8,77 31.2,77 31.2,74.4 					"/>
				</g>
				<g class="st0">
					<g>
						<path id="SVGID_45_" class="st1" d="M31.2,74.4V77c-4.2,0-7.5-3.4-7.5-7.5v-2.6C23.6,71,27,74.4,31.2,74.4z"/>
					</g>
				</g>
				<g>
					<path class="st3" d="M68.8,22c4.2,0,7.5,3.3,7.5,7.5v38.4c0,4.1-3.4,7.5-7.5,7.5H31.2c-4.2,0-7.5-3.4-7.5-7.5V29.5
						c0-4.1,3.4-7.5,7.5-7.5H68.8z"/>
				</g>
			</g>
		</g>
		<g>
			<path class="st4" d="M37.8,35.7V36c0,2-0.8,4-3.4,4c-2.8,0-3.7-1.8-3.7-5.8s0.9-5.8,3.7-5.8c3.2,0,3.4,2.3,3.4,3.5v0.2H36v-0.2
				c0-1-0.3-2.2-1.6-2.2s-1.9,0.8-1.9,4.4c0,3.6,0.6,4.5,1.9,4.5c1.5,0,1.7-1.6,1.7-2.7v-0.2H37.8z"/>
			<path class="st4" d="M41.1,28.6h2.3l2.9,11.1h-1.9L43.8,37h-3.3l-0.7,2.7H38L41.1,28.6z M43.5,35.6l-1.3-5.5l0,0l-1.3,5.5H43.5z"
				/>
			<path class="st4" d="M54,35.7V36c0,2-0.8,4-3.4,4c-2.8,0-3.7-1.8-3.7-5.8s0.9-5.8,3.7-5.8c3.2,0,3.4,2.3,3.4,3.5v0.2h-1.8v-0.2
				c0-1-0.3-2.2-1.6-2.2s-1.9,0.8-1.9,4.4c0,3.6,0.6,4.5,1.9,4.5c1.5,0,1.7-1.6,1.7-2.7v-0.2H54z"/>
			<path class="st4" d="M55.2,28.6H57V33h3.3v-4.4h1.8v11.1h-1.8v-5.2H57v5.2h-1.8V28.6z"/>
			<path class="st4" d="M63.9,28.6h6v1.5h-4.3v3.1h4v1.5h-4v3.5H70v1.5h-6.2V28.6H63.9z"/>
		</g>
	</g>
</g>
<g id="nyt_x5F_exporter_x5F_info" class="st5">
</g>
</svg>
